styles/1/Numix/48/places/brown-folder-art.svg

<?xml version="1.0" encoding="UTF-8" standalone="no"?>
<!-- Created with Inkscape (http://www.inkscape.org/) -->

<svg
   xmlns:dc="http://purl.org/dc/elements/1.1/"
   xmlns:cc="http://creativecommons.org/ns#"
   xmlns:rdf="http://www.w3.org/1999/02/22-rdf-syntax-ns#"
   xmlns:svg="http://www.w3.org/2000/svg"
   xmlns="http://www.w3.org/2000/svg"
   xmlns:sodipodi="http://sodipodi.sourceforge.net/DTD/sodipodi-0.dtd"
   xmlns:inkscape="http://www.inkscape.org/namespaces/inkscape"
   width="48"
   height="48"
   id="svg2"
   version="1.1"
   inkscape:version="0.91 r"
   sodipodi:docname="brown-folder-art.svg">
  <defs
     id="defs4" />
  <sodipodi:namedview
     id="base"
     pagecolor="#ffffff"
     bordercolor="#666666"
     borderopacity="1.0"
     inkscape:pageopacity="0.0"
     inkscape:pageshadow="2"
     inkscape:zoom="6.2331466"
     inkscape:cx="-5.9303569"
     inkscape:cy="16.249686"
     inkscape:document-units="px"
     inkscape:current-layer="svg2"
     showgrid="true"
     inkscape:window-width="1280"
     inkscape:window-height="998"
     inkscape:window-x="0"
     inkscape:window-y="0"
     inkscape:window-maximized="1">
    <inkscape:grid
       type="xygrid"
       id="grid2990"
       empspacing="5"
       visible="true"
       enabled="true"
       snapvisiblegridlinesonly="true" />
  </sodipodi:namedview>
  <metadata
     id="metadata7">
    <rdf:RDF>
      <cc:Work
         rdf:about="">
        <dc:format>image/svg+xml</dc:format>
        <dc:type
           rdf:resource="http://purl.org/dc/dcmitype/StillImage" />
        <dc:title />
      </cc:Work>
    </rdf:RDF>
  </metadata>
  <path
     style="font-size:medium;font-style:normal;font-variant:normal;font-weight:normal;font-stretch:normal;text-indent:0;text-align:start;text-decoration:none;line-height:normal;letter-spacing:normal;word-spacing:normal;text-transform:none;direction:ltr;block-progression:tb;writing-mode:lr-tb;text-anchor:start;baseline-shift:baseline;color:#000000;fill:#8d6e63;fill-opacity:1;fill-rule:nonzero;stroke:none;stroke-width:3.00000024;marker:none;visibility:visible;display:inline;overflow:visible;enable-background:accumulate;font-family:Sans;-inkscape-font-specification:Sans"
     d="M 5.1875 8 C 4.511132 8.144 3.984919 8.8087 4 9.5 L 4 37.5 C 4.000079 38.2853 4.714623 38.9999 5.5 39 L 42.5 39 C 43.285377 38.9999 43.999921 38.2853 44 37.5 L 44 12.53125 C 43.999921 11.74585 43.285377 11.03135 42.5 11.03125 L 28 11.03125 L 28 9.5 C 27.999921 8.7147 27.285377 8 26.5 8 L 5.5 8 C 5.396212 7.989 5.291288 7.989 5.1875 8 z M 23 18 C 29 18 32 22 32 25 C 32 27 31 32 24 32 C 22 32 21 31 21 29 C 21 27 20 27 19 27 C 18 27 16 27 16 24 C 16 21 19.006137 18.097 23 18 z M 21 20 C 20.447715 20 20 20.4477 20 21 C 20 21.5523 20.447715 22 21 22 C 21.552285 22 22 21.5523 22 21 C 22 20.4477 21.552285 20 21 20 z M 25 20 C 24.447715 20 24 20.4477 24 21 C 24 21.5523 24.447715 22 25 22 C 25.552285 22 26 21.5523 26 21 C 26 20.4477 25.552285 20 25 20 z M 29 22 C 28.447715 22 28 22.4477 28 23 C 28 23.5523 28.447715 24 29 24 C 29.552285 24 30 23.5523 30 23 C 30 22.4477 29.552285 22 29 22 z M 18 23 C 17.447715 23 17 23.4477 17 24 C 17 24.5523 17.447715 25 18 25 C 18.552285 25 19 24.5523 19 24 C 19 23.4477 18.552285 23 18 23 z M 24.5 28 C 23.671573 28 23 28.6716 23 29.5 C 23 30.3284 23.671573 31 24.5 31 C 25.328427 31 26 30.3284 26 29.5 C 26 28.6716 25.328427 28 24.5 28 z "
     id="path3912" />
  <g
     inkscape:label="Body"
     inkscape:groupmode="layer"
     id="layer1"
     transform="translate(0,-1004.3622)" />
</svg>

<!-- Created with Inkscape (http://www.inkscape.org/) -->
<svg xmlns="http://www.w3.org/2000/svg" viewBox="0 0 48 48">
 <path d="m 5.188 8 c -0.676 0.144 -1.203 0.809 -1.188 1.5 l 0 28 c 0 0.785 0.715 1.5 1.5 1.5 l 37 0 c 0.785 0 1.5 -0.715 1.5 -1.5 l 0 -24.969 c 0 -0.785 -0.715 -1.5 -1.5 -1.5 l -14.5 0 l 0 -1.531 c 0 -0.785 -0.715 -1.5 -1.5 -1.5 l -21 0 c -0.104 -0.011 -0.209 -0.011 -0.313 0 z m 17.813 10 c 6 0 9 4 9 7 c 0 2 -1 7 -8 7 c -2 0 -3 -1 -3 -3 c 0 -2 -1 -2 -2 -2 c -1 0 -3 0 -3 -3 c 0 -3 3.01 -5.903 7 -6 z m -2 2 c -0.552 0 -1 0.448 -1 1 c 0 0.552 0.448 1 1 1 c 0.552 0 1 -0.448 1 -1 c 0 -0.552 -0.448 -1 -1 -1 z m 4 0 c -0.552 0 -1 0.448 -1 1 c 0 0.552 0.448 1 1 1 c 0.552 0 1 -0.448 1 -1 c 0 -0.552 -0.448 -1 -1 -1 z m 4 2 c -0.552 0 -1 0.448 -1 1 c 0 0.552 0.448 1 1 1 c 0.552 0 1 -0.448 1 -1 c 0 -0.552 -0.448 -1 -1 -1 z m -11 1 c -0.552 0 -1 0.448 -1 1 c 0 0.552 0.448 1 1 1 c 0.552 0 1 -0.448 1 -1 c 0 -0.552 -0.448 -1 -1 -1 z m 6.5 5 c -0.828 0 -1.5 0.672 -1.5 1.5 c 0 0.828 0.672 1.5 1.5 1.5 c 0.828 0 1.5 -0.672 1.5 -1.5 c 0 -0.828 -0.672 -1.5 -1.5 -1.5 z" style="visibility:visible;fill:#8d6e63;fill-opacity:1;stroke:none;display:inline;color:#000;fill-rule:nonzero"/>
</svg>
